dist/images/edit-icon.svg

<?xml version="1.0" encoding="UTF-8"?>
<svg width="33px" height="28px" viewBox="0 0 33 28" version="1.1" xmlns="http://www.w3.org/2000/svg" xmlns:xlink="http://www.w3.org/1999/xlink">
    <!-- Generator: Sketch 48.2 (47327) - http://www.bohemiancoding.com/sketch -->
    <title>Artboard</title>
    <desc>Created with Sketch.</desc>
    <defs></defs>
    <g id="Page-1" stroke="none" stroke-width="1" fill="none" fill-rule="evenodd">
        <g id="Artboard" fill="#219DA6">
            <path d="M21.7515292,11.9034424 L20.4995978,13.1547406 C20.3533175,13.3022874 20.1139497,13.3022874 19.9664029,13.1547406 L17.8475548,11.0358926 C17.700008,10.8883458 17.700008,10.648978 17.8475548,10.5007979 L19.1001195,9.24886649 C19.430675,8.9170445 19.9683026,8.9170445 20.3007579,9.24886649 L21.7521625,10.7015376 C22.082718,11.0333596 22.082718,11.570354 21.7515292,11.9034424 L21.7515292,11.9034424 Z M19.5129973,14.0406547 L12.5839968,20.9740879 C12.4383497,21.2223212 12.198982,21.2223212 12.0514352,21.0760409 L9.93258709,18.9565595 C9.78504028,18.8083795 9.78504028,18.5690117 9.93258709,18.4214649 L16.8615876,11.4886649 C17.0091344,11.3417514 17.2466024,11.3417514 17.3947824,11.4886649 L19.5136305,13.6081463 C19.6605441,13.7563263 19.6605441,13.9956941 19.5129973,14.0406547 L19.5129973,14.0406547 Z M11.4080551,21.9537227 L8.40202648,22.9833841 L8.34630065,23.0030148 C8.25447968,23.023912 8.15379323,22.9979488 8.0822362,22.927025 C8.01067917,22.855468 7.98598249,22.7554148 8.00751293,22.6629605 L8.02587712,22.6085012 L9.0555385,19.6005728 L9.07453594,19.5442138 C9.0872009,19.5150843 9.10746484,19.4865882 9.13026177,19.4625248 C9.24108018,19.3523396 9.42092264,19.3523396 9.5311078,19.4625248 L11.5442034,21.4768869 C11.6543886,21.5883386 11.6543886,21.7669145 11.5442034,21.8770997 C11.5195068,21.9024296 11.4929104,21.9207938 11.4631477,21.934092 L11.4080551,21.9537227 L11.4080551,21.9537227 Z" id="edit"></path>
        </g>
    </g>
</svg>

<svg width="33" height="28" viewBox="0 0 33 28" xmlns="http://www.w3.org/2000/svg"><path d="M21.752 11.903L20.5 13.155a.376.376 0 0 1-.534 0l-2.118-2.12a.379.379 0 0 1 0-.534L19.1 9.249a.848.848 0 0 1 1.2 0l1.452 1.453c.33.331.33.868 0 1.201zm-2.239 2.138l-6.929 6.933c-.146.248-.385.248-.533.102l-2.118-2.12a.379.379 0 0 1 0-.535l6.929-6.932a.378.378 0 0 1 .533 0l2.119 2.12c.147.147.147.387-.001.432zm-8.105 7.913l-3.006 1.03-.056.019a.281.281 0 0 1-.339-.34l.019-.054 1.03-3.008.019-.057a.292.292 0 0 1 .055-.081c.111-.11.29-.11.401 0l2.013 2.014a.284.284 0 0 1-.08.457l-.056.02z" fill="#219DA6" fill-rule="evenodd"/></svg>
